X:1457
T:Bowl of Bigg
%T:JIGG
S:Charlton Memorial
S:Julia Say <Julia.Say@nspipes.co.uk> tradtunes 2013-12-2 (name found by Matt Seattle)
M:2/4
E:13
L:1/8
K:D
A|:D>A F>A|(3DFA (3Bcd|D>A F>A|E>F (3GFE|\
D>A F>A|D>A F>A|G>B F>A|E>F (3GFE:|\
d>g (3faf|d>g (3faf|d>g (3faf|e>f (3gfe|\
d>g (3faf|d>g (3fgf|(3gbg (3faf|e>f (3gfe|\
d>g (3faf|d>g (3faf|d>g (3faf|e>f (3gfe|\
d>g (3fgf|d>g (3faf|(3dcB (3AGF|E>F (3GFE||**
